assets/icons/telegram.svg

<svg width="25" height="25" viewBox="0 0 25 25" fill="none" xmlns="http://www.w3.org/2000/svg">
<path d="M19.7112 5.23445L3.76401 11.4159C3.12227 11.7037 2.90522 12.2802 3.60887 12.593L7.70004 13.8999L17.5919 7.75493C18.132 7.36915 18.6849 7.47203 18.2091 7.89638L9.71336 15.6285L9.44647 18.9007C9.69367 19.4059 10.1463 19.4083 10.435 19.1572L12.7855 16.9216L16.811 19.9516C17.746 20.508 18.2547 20.1489 18.4559 19.1292L21.0963 6.56188C21.3705 5.30659 20.9029 4.75351 19.7112 5.23445Z" fill="#111111"/>
</svg>

<svg xmlns="http://www.w3.org/2000/svg" width="25" height="25" fill="none" viewBox="0 0 25 25"><path fill="#111" d="M19.711 5.234 3.764 11.416c-.642.288-.859.864-.155 1.177L7.7 13.9l9.892-6.145c.54-.386 1.093-.283.617.141L9.713 15.63l-.267 3.27c.248.505.7.507.989.256l2.35-2.235 4.026 3.03c.935.556 1.444.197 1.645-.823l2.64-12.567c.274-1.255-.193-1.808-1.385-1.328"/></svg>
